X: 1
T:Captain Grant  "1998.3"
M:C|
L:1/8
Q:80
C:Arr. C. Hamilton
S:March
K:HP
|: {gef}e|
{g}A2{GdGe}A{g}B/4d3/4|
{gef}e2{Gdc}dg3/4f/4|  !
{gef}e{g}A{GAG}A{gef}e3/4d/4|
{g}B/4d3/4{g}B3/4A/4{gGd}Ge|
{g}A2{GdGe}A{g}B/4d3/4|  !
{gef}e2{Gdc}dg3/4f/4|
{gef}eA{g}G3/4A/4{g}B/4{d}G3/4|
{g}A2{GAG}A:| |:  !
{d}B/2|
{g}Aa{g}a3/2g/2|
{ag}ae{A}e3/2f/2|  !
{gf}ga{f}g{a}f3/4e/4|
{g}d3/4c/4{g}B3/4A/4{g}G3/4A/4{g}B/4{g}G3/4|1
{g}Aa{g}a3/2g/2|  !
{ag}ae{A}e3/2f/2|
{gf}gB{g}G3/4A/4{g}B/4{d}G3/4|
{g}A2{GAG}A:|2  !
{g}A2{GdGe}A{g}B/4d3/4|
{gef}e2{Gdc}dg3/4f/4|
{gef}eA{g}G3/4A/4{g}B/4{d}G3/4|  !
{g}A2{GAG}A|]
